X: 1
T: a Mabou Reel
O: trad
R: reel
Z: 2006 John Chambers <jc:trillian.mit.edu>
M: C|
L: 1/8
K: Hp
   d | {gcd}c2Ac {gBd}B2GB | ABcd efed    | {g}c<{d}Aec {gBd}B2Gf | ecdB {GAG}A2{g}A :|
|: d |  {g}c<eag {afg}f2df | ecae fB{G}Bd | {g}c<eag      {a}fedf | ecdB {GAG}A2{g}A :|
